icon-svg/vtmgo.svg

<svg xmlns="http://www.w3.org/2000/svg" viewBox="0 0 24 24"><path fill="#44739e" d="M21.901 5.528a4.66 4.66 0 0 0-2.938-3.291c-.709-.245-.549-.241-6.992-.236-5.152 0-6.088.015-6.388.08a4.595 4.595 0 0 0-3.527 3.726c-.044.267-.051 2.043-.044 6.393.015 5.573.025 6.047.1 6.328a4.6 4.6 0 0 0 1.166 2.052 4.37 4.37 0 0 0 2.865 1.377c.37.04 2.313.049 6.243.04 5.677-.02 5.703-.02 6.113-.131a4.5 4.5 0 0 0 1.455-.64 4.6 4.6 0 0 0 1.951-2.812c.081-.316.085-.809.085-6.437 0-5.664 0-6.128-.089-6.449m-4.26 12.37a3.61 3.61 0 0 1-4.096 2.022 14 14 0 0 1-1.424-.648c-.192-.064-.373.113-.522.208a3.7 3.7 0 0 1-.999.425 3.596 3.596 0 0 1-2.464-6.714 4 4 0 0 1 3.372.1 3.5 3.5 0 0 1-.826 1.418c-.2.1-.727-.183-.979-.183a1.98 1.98 0 0 0-1.879 1.661 1.94 1.94 0 0 0 1.261 2.02c.46.177 1.429.2 1.709-.315a1.5 1.5 0 0 0 .048-.66H9.227v-1.566h3.231a3.8 3.8 0 0 0 .142 1.428 1.9 1.9 0 0 0 .48.709c1.791 1.689 4.373-1.144 2.516-2.789a1.97 1.97 0 0 0-.899-.446 3.4 3.4 0 0 0-1.33.2l-.807-1.377v-.052a3.58 3.58 0 0 1 5.088 4.559Zm2.123-7.996v1.355h-1.746l-.015-1.317c-.015-1.405-.025-1.455-.285-1.598a.83.83 0 0 0-.722.053c-.336.21-.356.285-.371 1.641l-.016 1.216h-1.747V9.96c0-1.184-.01-1.298-.1-1.445-.245-.406-1.016-.275-1.252.21-.088.191-.099.31-.099 1.367v1.156h-1.372c-1.52 0-1.755-.035-2.23-.315a2.2 2.2 0 0 1-.811-.98 3 3 0 0 1-.14-.982l-.03-.699-.105.176c-.06.1-.421.715-.799 1.376a12 12 0 0 1-.811 1.31.445.445 0 0 1-.556.03c-.054-.05-.599-.956-1.204-2.016A13 13 0 0 1 4.254 7.07a.42.42 0 0 1 .131-.289c.13-.131.145-.131.841-.131h.705l.395.68a4 4 0 0 0 .46.707c.11.044.22-.1.59-.757l.351-.631h2.028l.339-.591.341-.595.01.481a6 6 0 0 0 .04.589c.025.106.055.116.42.116h.4v1.598h-.865l.03.421c.055.775.24.975.926.975h.409V6.646h1.599v.231c0 .125.016.22.04.21l.38-.19a1.54 1.54 0 0 1 .851-.191 1.57 1.57 0 0 1 1.367.471l.275.264.095-.125a2.2 2.2 0 0 1 2.208-.519 1.7 1.7 0 0 1 .841.729 4.8 4.8 0 0 1 .303 2.376"/></svg>

<?xml version="1.0" encoding="UTF-8"?>
<svg width="24px" fill="#44739e" height="24px" viewBox="0 0 24 24" version="1.1" xmlns="http://www.w3.org/2000/svg" xmlns:xlink="http://www.w3.org/1999/xlink">
            <path d="M 21.911,5.521 A 4.658,4.658 0 0 0 18.97,2.226 C 18.26,1.981 18.42,1.985 11.97,1.99 6.812,1.99 5.875,2.005 5.575,2.07 A 4.6,4.6 0 0 0 2.044,5.8 C 2,6.067 1.993,7.845 2,12.2 c 0.015,5.579 0.025,6.054 0.1,6.335 a 4.582,4.582 0 0 0 1.167,2.055 4.374,4.374 0 0 0 2.868,1.378 c 0.371,0.04 2.316,0.049 6.25,0.04 5.684,-0.02 5.71,-0.02 6.12,-0.131 a 4.527,4.527 0 0 0 1.457,-0.641 4.6,4.6 0 0 0 1.953,-2.815 C 21.996,18.105 22,17.611 22,11.977 22,6.307 22,5.842 21.911,5.521 Z m -4.265,12.384 a 3.616,3.616 0 0 1 -4.1,2.024 13.72,13.72 0 0 1 -1.426,-0.649 c -0.192,-0.064 -0.373,0.113 -0.523,0.208 a 3.663,3.663 0 0 1 -1,0.426 3.6,3.6 0 0 1 -2.467,-6.722 4.011,4.011 0 0 1 3.376,0.1 3.472,3.472 0 0 1 -0.827,1.42 c -0.2,0.1 -0.727,-0.183 -0.98,-0.183 a 1.977,1.977 0 0 0 -1.881,1.663 1.945,1.945 0 0 0 1.263,2.022 c 0.46,0.177 1.43,0.2 1.71,-0.315 A 1.48,1.48 0 0 0 10.84,17.238 H 9.223 V 15.67 h 3.234 a 3.8,3.8 0 0 0 0.143,1.43 1.943,1.943 0 0 0 0.48,0.709 c 1.793,1.691 4.378,-1.145 2.519,-2.792 a 1.966,1.966 0 0 0 -0.9,-0.446 3.362,3.362 0 0 0 -1.332,0.2 L 12.559,13.392 V 13.34 a 3.584,3.584 0 0 1 5.094,4.565 z M 19.772,9.9 v 1.356 H 18.024 L 18.009,9.938 C 17.994,8.531 17.984,8.481 17.723,8.338 A 0.83,0.83 0 0 0 17,8.391 c -0.336,0.21 -0.356,0.285 -0.371,1.643 l -0.016,1.217 H 14.864 V 9.958 c 0,-1.186 -0.01,-1.3 -0.1,-1.447 -0.245,-0.406 -1.017,-0.275 -1.253,0.21 -0.089,0.191 -0.1,0.311 -0.1,1.369 v 1.157 h -1.373 c -1.522,0 -1.757,-0.035 -2.233,-0.315 A 2.2,2.2 0 0 1 8.993,9.951 2.981,2.981 0 0 1 8.853,8.968 l -0.03,-0.7 -0.105,0.176 c -0.06,0.1 -0.421,0.716 -0.8,1.377 A 12.285,12.285 0 0 1 7.106,11.133 0.446,0.446 0 0 1 6.55,11.163 C 6.496,11.113 5.95,10.206 5.344,9.145 A 12.852,12.852 0 0 1 4.244,7.064 0.417,0.417 0 0 1 4.375,6.775 C 4.505,6.644 4.52,6.644 5.217,6.644 h 0.706 l 0.395,0.681 a 4.166,4.166 0 0 0 0.461,0.707 c 0.11,0.044 0.22,-0.1 0.591,-0.757 L 7.721,6.643 h 2.03 l 0.34,-0.592 0.341,-0.595 0.01,0.481 a 5.872,5.872 0 0 0 0.04,0.59 c 0.025,0.106 0.055,0.116 0.421,0.116 h 0.4 v 1.6 h -0.866 l 0.03,0.421 c 0.055,0.776 0.24,0.976 0.927,0.976 h 0.41 v -3 h 1.6 v 0.231 c 0,0.125 0.016,0.22 0.04,0.21 l 0.381,-0.19 A 1.535,1.535 0 0 1 14.677,6.7 1.565,1.565 0 0 1 16.045,7.171 l 0.276,0.265 0.095,-0.125 a 2.2,2.2 0 0 1 2.21,-0.52 1.7,1.7 0 0 1 0.842,0.73 4.8,4.8 0 0 1 0.304,2.379 z"/>

</svg>
